X: 20984
T: Julia Clifford's
R: slide
M: 12/8
K: Adorian
|:BAF E3|FEF DFA|BAF EFA|B2A Bcd|
BAF E3|FEF DFA|d2f edc|B2A BAB:|
|:d2e fed|c2d ecA|d2e fed|f2e fga|
d2e fed|cA/B/c ecA|dfd cec|B2A Bcd:|

